Papirus/32x32/apps/com.leinardi.gst.svg

<svg width="32" height="32" version="1.1" xmlns="http://www.w3.org/2000/svg">
 <rect x="2" y="4" width="28" height="26" rx="2.5452001" ry="2.737" style="opacity:.2"/>
 <rect x="2" y="3" width="28" height="26" rx="2.5452001" ry="2.737" style="fill:#d63f36"/>
 <rect x="10" y="11" width="12" height="12" rx="1.3329999" ry="1.3329999" style="opacity:.2"/>
 <path d="m12 6v7h-5v-3c-5.52e-5 -0.5522619-0.4477381-0.9999448-1-1h-2c-0.5522847 0-1 0.4477153-1 1 0 0.552285 0.4477153 1 1 1h1v3c5.52e-5 0.552262 0.4477381 0.999945 1 1h6v-1.408203h1.955078v-7.591797zm3.044922 0v7.591797h1.955078v-7.591797zm3 0v7.591797h1.955078v1.408203h8c0.552262-5.5e-5 0.999945-0.447738 1-1v-4c0-0.5522847-0.447715-1-1-1s-1 0.4477153-1 1v3h-7v-7zm-14.044922 10c-0.5522847 0-1 0.447715-1 1s0.4477153 1 1 1h8v-2zm16 0v2h8c0.552285 0 1-0.447715 1-1s-0.447715-1-1-1zm-16 3c-0.5522619 5.5e-5 -0.9999448 0.447738-1 1v4c0 0.552285 0.4477153 1 1 1s1-0.447715 1-1v-3h7v7h1.955078l0.044922-8.000203-2 2.03e-4v-1zm16 0v1h-2l0.04492 8h1.95508v-8h2v1h3v3c5.5e-5 0.552262 0.447738 0.999945 1 1h2c0.552285 0 1-0.447715 1-1s-0.447715-1-1-1h-1v-3c-5.5e-5 -0.552262-0.447738-0.999945-1-1zm-5 1 0.04492 8h1.95508v-8z" style="opacity:.2"/>
 <rect x="10" y="10" width="12" height="12" rx="1.333" ry="1.333" style="fill:#7ea193"/>
 <path d="m12 5v7h-5v-3c-5.52e-5 -0.5522619-0.4477381-0.9999448-1-1h-2v2h1v3c5.52e-5 0.552262 0.4477381 0.999945 1 1h6v-1.408203h1.955078v-7.591797zm3.044922 0v7.591797h1.955078v-7.591797zm3 0v7.591797h1.955078v1.408203h8c0.552262-5.5e-5 0.999945-0.447738 1-1v-4h-2v3h-7v-7zm-14.044922 10v2h8v-2zm16 0v2h8v-2zm-16 3c-0.5522619 5.5e-5 -0.9999448 0.447738-1 1v4h2v-3h7v7h1.955078v-7.591797h-1.955078v-1.408203zm16 0v1.408203h-1.955078v7.591797h1.955078v-7h5v3c5.5e-5 0.552262 0.447738 0.999945 1 1h2v-2h-1v-3c-5.5e-5 -0.552262-0.447738-0.999945-1-1zm-4.955078 1.408203v7.591797h1.955078v-7.591797z" style="fill:#569c81"/>
 <path d="m29 9c0 0.5522847-0.447715 1-1 1s-1-0.4477153-1-1 0.447715-1 1-1 1 0.4477153 1 1z" style="fill:#e4e4e4"/>
 <path d="m29 23a1 1 0 0 1-1 1 1 1 0 0 1-1-1 1 1 0 0 1 1-1 1 1 0 0 1 1 1z" style="fill:#e4e4e4"/>
 <path d="m5 16a1 1 0 0 1-1 1 1 1 0 0 1-1-1 1 1 0 0 1 1-1 1 1 0 0 1 1 1z" style="fill:#81e9c0"/>
 <path d="m29 16a1 1 0 0 1-1 1 1 1 0 0 1-1-1 1 1 0 0 1 1-1 1 1 0 0 1 1 1z" style="fill:#febd78"/>
 <path d="m5 9a1 1 0 0 1-1 1 1 1 0 0 1-1-1 1 1 0 0 1 1-1 1 1 0 0 1 1 1z" style="fill:#efa0d7"/>
 <path d="m5 23a1 1 0 0 1-1 1 1 1 0 0 1-1-1 1 1 0 0 1 1-1 1 1 0 0 1 1 1z" style="fill:#aeb4f1"/>
 <path d="m12 8v4h-4v2h4v1h-4v2h4v1h-4v2h4v4h2v-4h1v4h2v-4h1v4h2v-4h4v-2h-4v-1h4v-2h-4v-1h4v-2h-4v-4h-2v4h-1v-4h-2v4h-1v-4h-2zm2 6h1v1h-1v-1zm3 0h1v1h-1v-1zm-3 3h1v1h-1v-1zm3 0h1v1h-1v-1z" style="fill:#fbd14e"/>
 <rect x="11" y="12" width="10" height="10" style="opacity:.2"/>
 <rect x="11" y="11" width="10" height="10" style="fill:#414141"/>
 <path d="M 4.5447917,3 C 3.1346098,3 2,4.2201176 2,5.7363281 v 1 C 2,5.2201176 3.1346098,4 4.5447917,4 H 27.455209 C 28.865391,4 30,5.2201176 30,6.7363281 v -1 C 30,4.2201176 28.865391,3 27.455209,3 Z" style="fill:#ffffff;opacity:.2"/>
 <rect x="11" y="11" width="10" height="1" style="fill:#fdfdfd;opacity:.2"/>
</svg>

<svg xmlns="http://www.w3.org/2000/svg" width="32" height="32" version="1.1">
 <rect style="opacity:0.2" width="30" height="26" x="1" y="4" rx="2.727" ry="2.737"/>
 <rect style="fill:#d63f36" width="30" height="26" x="1" y="3" rx="2.727" ry="2.737"/>
 <rect style="opacity:0.1" width="12" height="12" x="10" y="11" rx="1.333" ry="1.333"/>
 <rect style="fill:#7ea193" width="12" height="12" x="10" y="10" rx="1.333" ry="1.333"/>
 <path style="opacity:0.1" d="m 12,6 v 7 H 7 V 10 C 6.9999448,9.4477381 6.5522619,9.0000552 6,9 H 4 c -0.5522847,0 -1,0.4477153 -1,1 0,0.552285 0.4477153,1 1,1 h 1 v 3 c 5.52e-5,0.552262 0.4477381,0.999945 1,1 h 6 v -1.408203 h 1.955078 V 6 Z m 3.044922,0 v 7.591797 H 17 V 6 Z m 3,0 v 7.591797 H 20 V 15 h 8 c 0.552262,-5.5e-5 0.999945,-0.447738 1,-1 V 10 C 29,9.4477153 28.552285,9 28,9 27.447715,9 27,9.4477153 27,10 v 3 H 20 V 6 Z M 4,16 c -0.5522847,0 -1,0.447715 -1,1 0,0.552285 0.4477153,1 1,1 h 8 v -2 z m 16,0 v 2 h 8 c 0.552285,0 1,-0.447715 1,-1 0,-0.552285 -0.447715,-1 -1,-1 z M 4,19 c -0.5522619,5.5e-5 -0.9999448,0.447738 -1,1 v 4 c 0,0.552285 0.4477153,1 1,1 0.5522847,0 1,-0.447715 1,-1 v -3 h 7 v 7 h 1.955078 V 20.408203 H 12 V 19 Z m 16,0 v 1.408203 H 18.044922 V 28 H 20 v -7 h 5 v 3 c 5.5e-5,0.552262 0.447738,0.999945 1,1 h 2 c 0.552285,0 1,-0.447715 1,-1 0,-0.552285 -0.447715,-1 -1,-1 h -1 v -3 c -5.5e-5,-0.552262 -0.447738,-0.999945 -1,-1 z m -4.955078,1.408203 V 28 H 17 v -7.591797 z"/>
 <path style="fill:#569c81" d="m 12,5 v 7 H 7 V 9 C 6.9999448,8.4477381 6.5522619,8.0000552 6,8 H 4 v 2 h 1 v 3 c 5.52e-5,0.552262 0.4477381,0.999945 1,1 h 6 v -1.408203 h 1.955078 V 5 Z m 3.044922,0 v 7.591797 H 17 V 5 Z m 3,0 v 7.591797 H 20 V 14 h 8 c 0.552262,-5.5e-5 0.999945,-0.447738 1,-1 V 9 h -2 v 3 H 20 V 5 Z M 4,15 v 2 h 8 v -2 z m 16,0 v 2 h 8 V 15 Z M 4,18 c -0.5522619,5.5e-5 -0.9999448,0.447738 -1,1 v 4 h 2 v -3 h 7 v 7 h 1.955078 V 19.408203 H 12 V 18 Z m 16,0 v 1.408203 H 18.044922 V 27 H 20 v -7 h 5 v 3 c 5.5e-5,0.552262 0.447738,0.999945 1,1 h 2 v -2 h -1 v -3 c -5.5e-5,-0.552262 -0.447738,-0.999945 -1,-1 z m -4.955078,1.408203 V 27 H 17 v -7.591797 z"/>
 <path style="fill:#ffffff" d="m 29,9 c 0,0.5522847 -0.447715,1 -1,1 -0.552285,0 -1,-0.4477153 -1,-1 0,-0.5522847 0.447715,-1 1,-1 0.552285,0 1,0.4477153 1,1 z"/>
 <path style="fill:#ffffff" d="m 29,23 a 1,1 0 0 1 -1,1 1,1 0 0 1 -1,-1 1,1 0 0 1 1,-1 1,1 0 0 1 1,1 z"/>
 <path style="fill:#81e9c0" d="M 5,16 A 1,1 0 0 1 4,17 1,1 0 0 1 3,16 1,1 0 0 1 4,15 1,1 0 0 1 5,16 Z"/>
 <path style="fill:#febd78" d="m 29,16 a 1,1 0 0 1 -1,1 1,1 0 0 1 -1,-1 1,1 0 0 1 1,-1 1,1 0 0 1 1,1 z"/>
 <path style="fill:#efa0d7" d="M 5,9 A 1,1 0 0 1 4,10 1,1 0 0 1 3,9 1,1 0 0 1 4,8 1,1 0 0 1 5,9 Z"/>
 <path style="fill:#aeb4f1" d="M 5,23 A 1,1 0 0 1 4,24 1,1 0 0 1 3,23 1,1 0 0 1 4,22 1,1 0 0 1 5,23 Z"/>
 <path style="fill:#fbd14e" d="M 12 8 L 12 12 L 8 12 L 8 14 L 12 14 L 12 15 L 8 15 L 8 17 L 12 17 L 12 18 L 8 18 L 8 20 L 12 20 L 12 24 L 14 24 L 14 20 L 15 20 L 15 24 L 17 24 L 17 20 L 18 20 L 18 24 L 20 24 L 20 20 L 24 20 L 24 18 L 20 18 L 20 17 L 24 17 L 24 15 L 20 15 L 20 14 L 24 14 L 24 12 L 20 12 L 20 8 L 18 8 L 18 12 L 17 12 L 17 8 L 15 8 L 15 12 L 14 12 L 14 8 L 12 8 z M 14 14 L 15 14 L 15 15 L 14 15 L 14 14 z M 17 14 L 18 14 L 18 15 L 17 15 L 17 14 z M 14 17 L 15 17 L 15 18 L 14 18 L 14 17 z M 17 17 L 18 17 L 18 18 L 17 18 L 17 17 z"/>
 <rect style="fill:#414141" width="10" height="10" x="11" y="11"/>
 <path style="opacity:0.2;fill:#ffffff" d="M 3.7265625 3 C 2.2156534 3 1 4.2201176 1 5.7363281 L 1 6.7363281 C 1 5.2201176 2.2156534 4 3.7265625 4 L 28.273438 4 C 29.784347 4 31 5.2201176 31 6.7363281 L 31 5.7363281 C 31 4.2201176 29.784347 3 28.273438 3 L 3.7265625 3 z"/>
</svg>
